X:1
T:Mount Roraima, 10.9.10.9 D
T:Mount Roraima, 10.9.10.9 D
T:Harold B. Adams, 1880
T:Public Domain Courtesy of the Cyber Hymnal™
C:Harold B. Adams, 1880
Z:Public Domain
Z:Courtesy of the Cyber Hymnal™
%%score ( 1 2 ) ( 3 4 )
L:1/8
Q:1/4=95
M:4/4
K:Eb
V:1 treble 
V:2 treble 
V:3 bass 
V:4 bass 
V:1
 [EG]>[FA] | [GB]3 [EG] E>[Ac] [GB]>[^F=A] | [Ac] [GB]3- [GB]2 [EG]>[FA] | %3
 [GB]3 [GB] [Gc][Ge] [Fd]>[Ec] | [DB]6 [EG]>[FA] | [GB]3 [EG] E>[Ac] [GB]>[^F=A] | %6
 [Ac] [GB]3- [GB]2 [GB]>[GB] | [Ac]3 [Ac] [Fd][Fd] [Ac]>[Ad] | [Ge]6 [Ge]>[Ge] | %9
 [Ad]3 [Ad] [Ad][Ad] [Ac]>[Ad] | [Ge] [GB]3- [GB]2 [GB]>[GB] |!<(! [Ac]3 [Ac] [=Ac][Ac] [Ad]>[Ac] | %12
 [Bd]6!<)! [Ad]>[Ac] | [GB]3 [EG] E>[Ac] [GB]>[^F=A] | [Ac] [GB]3- [GB]2 [GB]>[GB] | %15
 [Ac]3 [Ac] [Fd][Fd] [Ac]>[Ad] | [Ge]6 |] %17
V:2
 x2 | x4 E3/2 x5/2 | x8 | x8 | x8 | x4 E3/2 x5/2 | x8 | x8 | x8 | x8 | x8 | x8 | x8 | %13
 x4 E3/2 x5/2 | x8 | x8 | x6 |] %17
V:3
 [E,B,]>[E,B,] | [E,E]3 [E,B,] [E,G,]>[E,A,] [E,B,]>[E,E] | [E,E] [E,E]3- [E,E]2 [E,B,]>[E,B,] | %3
 [E,E]3 [E,E] [C,E][C,C] [F,B,]>[F,=A,] | [B,,B,]6 [E,B,]>[E,B,] | %5
 [E,E]3 [E,B,] [E,G,]>[E,A,] [E,B,]>[E,D] | [E,E] [E,E]3- [E,E]2 [E,E]>[E,E] | %7
 [A,E]3 [A,E] B,B, [B,,B,]>[B,,B,] | [E,B,]6 [E,B,]>[E,B,] | %9
 [B,,B,]3 [B,,B,] [B,,B,][B,,B,] [B,,B,]>[B,,B,] | [E,B,] [E,E]3- [E,E]2 [E,E]>[E,E] | %11
 [A,E]3 [A,E] [F,E][F,E] [F,C]>[F,C] | B,6 [B,,B,]>[B,,B,] | %13
 [E,B,]3 [E,B,] [E,G,]>[E,A,] [E,B,]>[E,E] | [E,E] [E,E]3- [E,E]2 [E,E]>[E,E] | %15
 [A,E]3 [A,E] B,B, [B,,B,]>[B,,B,] | [E,B,]6 |] %17
V:4
 x2 | x8 | x8 | x8 | x8 | x8 | x8 | x4 B,B, x2 | x8 | x8 | x8 | x8 | B,6 x2 | x8 | x8 | %15
 x4 B,B, x2 | x6 |] %17

